docs/icons/flatpak.svg

<?xml version="1.0" encoding="UTF-8" standalone="no"?>
<!-- Created with Inkscape (http://www.inkscape.org/) -->

<svg
   width="64"
   height="64"
   viewBox="0 0 16.933333 16.933333"
   version="1.1"
   id="svg201"
   inkscape:version="1.2 (dc2aedaf03, 2022-05-15)"
   sodipodi:docname="Flatpak_Logo_notext.svg"
   inkscape:export-filename="Flatpak_Logo_notext.png"
   inkscape:export-xdpi="28.85"
   inkscape:export-ydpi="28.85"
   xmlns:inkscape="http://www.inkscape.org/namespaces/inkscape"
   xmlns:sodipodi="http://sodipodi.sourceforge.net/DTD/sodipodi-0.dtd"
   xmlns="http://www.w3.org/2000/svg"
   xmlns:svg="http://www.w3.org/2000/svg">
  <sodipodi:namedview
     id="namedview203"
     pagecolor="#ffffff"
     bordercolor="#666666"
     borderopacity="1.0"
     inkscape:showpageshadow="2"
     inkscape:pageopacity="0.0"
     inkscape:pagecheckerboard="0"
     inkscape:deskcolor="#d1d1d1"
     inkscape:document-units="mm"
     showgrid="false"
     inkscape:zoom="2.114039"
     inkscape:cx="-60.547607"
     inkscape:cy="14.190845"
     inkscape:window-width="1920"
     inkscape:window-height="1011"
     inkscape:window-x="0"
     inkscape:window-y="32"
     inkscape:window-maximized="1"
     inkscape:current-layer="layer1" />
  <defs
     id="defs198" />
  <g
     inkscape:label="Calque 1"
     inkscape:groupmode="layer"
     id="layer1">
    <g
       id="g9130"
       transform="matrix(0.05197432,0,0,0.05197432,-9.3959989,-8.7216911)"
       style="mix-blend-mode:normal;fill:#4a90d9;fill-opacity:1;fill-rule:nonzero">
      <path
         style="fill:#4a90d9;fill-opacity:1;fill-rule:nonzero;stroke:none;stroke-width:1px;stroke-linecap:butt;stroke-linejoin:miter;stroke-opacity:1"
         d="m 474.6092,255.1181 1e-5,151.18111 -130.92667,75.59055 v -151.1811 z"
         id="path9124"
         sodipodi:nodetypes="ccccc" />
      <path
         style="fill:#4a90d9;fill-opacity:1;fill-rule:nonzero;stroke:none;stroke-width:1px;stroke-linecap:butt;stroke-linejoin:miter;stroke-opacity:1"
         d="M 343.68252,330.70866 V 179.52756 L 212.75586,255.1181 Z"
         id="path9126" />
      <path
         style="fill:#4a90d9;fill-opacity:1;fill-rule:nonzero;stroke:none;stroke-width:82.9362;stroke-linecap:round;stroke-linejoin:round;stroke-dasharray:none;stroke-opacity:1"
         d="m 218.61226,233.26169 c -13.54108,7.81795 -21.85641,22.22052 -21.85641,37.85641 v 119.18111 c 0,15.63589 8.31533,30.03846 21.85641,37.85641 l 103.21385,59.59055 c 13.54108,7.81794 30.17174,7.81794 43.71282,0 l 103.21386,-59.59055 c 13.54108,-7.81795 21.85641,-22.22052 21.85641,-37.85641 V 271.1181 c 0,-15.63589 -8.31533,-30.03846 -21.85641,-37.85641 L 365.53893,173.67115 c -13.54108,-7.81794 -30.17174,-7.81794 -43.71282,0 z m 130.92667,-31.87772 103.21386,59.59054 c 3.60767,2.08289 5.85641,5.97781 5.85641,10.14359 v 119.18111 c 0,4.16578 -2.24874,8.0607 -5.85641,10.14359 l -103.21386,59.59055 c -3.60767,2.08289 -8.10515,2.08289 -11.71282,0 L 234.61226,400.4428 c -3.60767,-2.08289 -5.85641,-5.97781 -5.85641,-10.14359 V 271.1181 c 0,-4.16578 2.24874,-8.0607 5.85641,-10.14359 l 103.21385,-59.59054 c 3.60767,-2.08289 8.10515,-2.08289 11.71282,0 z"
         id="path9128" />
    </g>
  </g>
</svg>

<?xml version="1.0" encoding="UTF-8" standalone="no"?>
<svg
   viewBox="0 0 64 64"
   version="1.1"
   id="svg12"
   sodipodi:docname="flatpak.svg"
   width="64"
   height="64"
   inkscape:version="1.2 (dc2aedaf03, 2022-05-15)"
   xmlns:inkscape="http://www.inkscape.org/namespaces/inkscape"
   xmlns:sodipodi="http://sodipodi.sourceforge.net/DTD/sodipodi-0.dtd"
   xmlns="http://www.w3.org/2000/svg"
   xmlns:svg="http://www.w3.org/2000/svg">
  <defs
     id="defs16" />
  <sodipodi:namedview
     id="namedview14"
     pagecolor="#ffffff"
     bordercolor="#666666"
     borderopacity="1.0"
     inkscape:showpageshadow="2"
     inkscape:pageopacity="0.0"
     inkscape:pagecheckerboard="true"
     inkscape:deskcolor="#d1d1d1"
     showgrid="false"
     inkscape:zoom="4.634864"
     inkscape:cx="-25.243459"
     inkscape:cy="27.832532"
     inkscape:window-width="1920"
     inkscape:window-height="1011"
     inkscape:window-x="0"
     inkscape:window-y="32"
     inkscape:window-maximized="1"
     inkscape:current-layer="svg12" />
  <g
     style="mix-blend-mode:normal;fill:#ffffff"
     id="g10"
     transform="matrix(0.72156502,0,0,0.72156502,-60.358969,-5.4510215)">
    <g
       style="fill:#ffffff"
       id="g6">
      <path
         style="fill:#ffffff;stroke:none;stroke-width:1px;stroke-linecap:butt;stroke-linejoin:miter;stroke-opacity:1"
         d="M 474.61,255.118 V 406.3 L 343.683,481.89 V 330.71 Z M 343.683,330.709 V 179.528 l -130.927,75.59 z"
         transform="matrix(0.27224,0,0,0.27224,34.434,-38.13)"
         id="path2" />
      <path
         style="fill:#ffffff;fill-opacity:1;fill-rule:nonzero;stroke:none;stroke-width:82.9362;stroke-linecap:round;stroke-linejoin:round;stroke-dasharray:none;stroke-opacity:1"
         d="m 218.612,233.262 a 43.667,43.667 0 0 0 -21.856,37.856 V 390.3 a 43.667,43.667 0 0 0 21.856,37.857 l 103.214,59.59 a 43.667,43.667 0 0 0 43.713,0 l 103.214,-59.59 A 43.667,43.667 0 0 0 490.609,390.3 V 271.12 a 43.667,43.667 0 0 0 -21.856,-37.857 l -103.214,-59.59 a 43.667,43.667 0 0 0 -43.713,0 z m 130.927,-31.878 103.214,59.59 a 11.759,11.759 0 0 1 5.856,10.144 V 390.3 c 0,4.166 -2.249,8.06 -5.856,10.144 l -103.214,59.59 a 11.759,11.759 0 0 1 -11.713,0 L 234.612,400.444 A 11.759,11.759 0 0 1 228.756,390.3 V 271.12 c 0,-4.167 2.249,-8.062 5.856,-10.144 l 103.214,-59.591 a 11.759,11.759 0 0 1 11.713,0 z"
         transform="matrix(0.27224,0,0,0.27224,34.434,-38.13)"
         id="path4" />
    </g>
  </g>
</svg>
